X: 269
T: Tawnamullagh Jig
T: (for Alan Morrisroe)
C: BB 12/08
N: 202257
M: 6/8
R: jig
L: 1/8
Q: 330
K: D
A | "D" d2A FEF | DFA dAF | "C" G2=c cBc | "G" GAB "C"=cGE |
"D" FEF dAF | "C"E=CE =cGE | "D" FAB "C"=cGE | "D" FDD "D"D2 :|
A |"D" def a2b | a2b afd | "C"=cef g2a|"C"g2a ge=c|
"D" def a2f | "C"=cef g2e |"D"faf "C"ge=c | "A" edc "D"d2 :|
%%%%%%%%%%%%%%%%%%%%%%%%%%%%%%%
